X:52
T:King William Crossed Boyne Water. RHu.052
T:Idbury Hill(Bledington.),aka. RHu.052
T:Boyne Water(Sleights),aka. RHu.052
S:R.Hughes MS,1823,Whitchurch,Shrops.
A:Whitchurch, Shropshire
Z:Neil Brookes 2006
M:2/4
L:1/8
Q:1/4=100
K:Am
A|Ae e/f/g/e/|d/c/B/A/ GA/B/|cA e/d/c/B/|A2E2|!
Ae e/f/g/e/|d/c/B/A/ GA/B/|cA e/d/c/B/|A3A::!
d|e>fge|a/g/f/e/ dd|e>fge|a2e>f|!
gf g/f/g/e/|d/c/B/A/ GA/B/|cA e/d/c/B/|A3A:|

